X:1
T:The Fairy Lady of Loch Laerne  "Eibhli Gheal Chiuin ni Chearbhaill"
M:6/8
L:1/8
Q:80
C:arr. Kent Hiestand
S:Slow Air
K:HP
|: {g}A3/2B/2d{gef}e3/2d/2e | \
{g}f3/2e/2d{gef}e3/2d/2e | \
{g}f3/2e/2d{g}d/2B3/2{G}A |
{g}A3/2B/2A{g}A3/2B/2{G}A :| \
{g}e3/2f/2g{ag}a3/2g/2a | \
{g}a3/2g/2f{gef}edB |
{g}e3/2f/2g{ag}a3/2g/2a | \
{f}g3{e}fed | \
{g}e3/2f/2g{ag}a3/2g/2a |
{g}a3/2g/2f{gef}edB | \
{g}e3/2f/2g{ag}a3/2g/2a | \
{f}g3{e}fed |
{g}e2d2B2|]
{g}A3/2B/2d{gef}e3/2d/2e | \
{g}f3/2e/2d{gef}e3/2d/2e |
{g}f3/2e/2d{g}d/2B3/2{G}A | \
{g}A3/2B/2A{g}A3/2B/2{G}A | \
{g}A3/2B/2d{g}e2f/4e/4d/4e/4 |
{g}f3/2e/2d{g}e2f/4e/4d/4e/4 | \
{g}f3/2e/2d{g}d/2B3/2{G}A | \
{g}A3/2B/2A{g}A3/2B/2{G}A|]
{g}e3/2f/2g{ag}a3/2g/2a | \
{g}a3/2g/2f{gef}edB | \
{g}e3/2f/2g{ag}a3/2g/2a |
{f}g3{e}fed | \
{g}e3/2f/2g{ag}a3/2g/2a | \
{g}a3/2g/2f{gef}edB |
{g}e3/2f/2g{ag}a3/2g/2a | \
{f}g3{e}fed | \
{g}edB{GAG}A3|]
